X: 65
T: Lady Ann Hope
T: Strathspey, G
L: 1/16
M: C
K: G
|: DG3 G3B AG3 E4| c4 ce3 d3c Bg3| dB3 B3G c3A BG3| [1 E3A GFEF G4 G3E:| [2 E3A GFEF G4 G3f|] 
|: g4 d3g B3g dg3| g3a bg3 e4 e3f| (3g2a2b2 (3a2g2f2 (3e2f2g2 (3d2c2B2| [1 (3c2d2e2 (3d2e2f2 g3d BG3:| [2 (3c2d2e2 (3d2e2f2 g4 g1b3|] 
D: Stephanie Wills, Tradition Continued, STEPH 1-94
